X:363
T:Donegal Lass, The
R:jig
C:Brian Finnegan
D:Brian Finnegan: When The Party's Over
Z:id:hn-jig-363
M:6/8
L:1/8
K:Amix
Ace aed|cdB ~A3|GBd ~G3|FAd ~F3|
Ace aed|cdB A2a|aed cdB|ABG A3:|
|:GBd ~G3|FAd ~F3|e2e ecA|e2e ecA|
GBd ~G3|FAd F2a|aed cdB|ABG A3:|

